X: 1913
T: Tabby Tomcat
B: australian traditional tunes wiki
M:3/4
L:1/8
R: Waltz
Q: 1/4=100
K:G
V:1 
B2||"G"d4B2|G2F2G2|"D"A2-A2F2|D4d2|"C"e4d2|"D"c2B2A2|"G"d3dd2|d2B2c2|
d4B2|G2F2G2|"D"A2A2F2|D4d2|"C"e4d2|"D"c2B2A2|"G"G3GG2|G4dd||
"G"B2d2dd|e2d2dd|B2d2e2|d4dd |B2d2d2|d2e2f2|"C"g2f2e2|"Am"e4ee|
c2B2A2|"D"a4aa|f2e2d2|"G"b4bb|"(Bm)"g2f2e2|"Am"a4ef|"C"g2f2e2|"D"d2B2c2|
"G"d4B2|G2F2G2|"D"A2A2F2|D4d2|"C"e4d2|"D"c2B2A2|"G"d3dd2|d2B2c2|
d4B2|G2F2G2|"D"A2A2F2|D4d2|"C"e4d2|"D"c2B2A2|"G"G3GG2|G4||
% abcbook-tune_id 6342d53a935f38a7806cbcf2


% abcbook-boost 0
% abcbook-tablature 
% abcbook-transpose 
% abcbook-lastupdated 1665324392486
% abcbook-soundfonts 
% abcbook-repeats 1
% NFF Book 2016

